X: 12
T:Merrily Kissed The Quaker's Wife
M:6/8
L:1/8
N:http://www.lesession.co.uk
Z:Steve Mansfield 1998-2001
R:Polka
K:G
D | GAB D2 B | c2 A B2 G | GAB DEG | A3 AGE |
GAB D2 B | c2 A B2 G | GAB D2 E | G3 G2 :: c |
BGG AGG | BGG AGG | GAB DEG | A3 AGA |
BGG AGG | BGG AGG | GAB D2 E | G3 G2 :: d |
g3 aga | bge def | gag gab | a3 agf |
gag fgf | ege dBA | GAB D2 E | G3 G2 :|

